assets/symbols/mulberry/toothpaste.svg

<svg height="850.394" viewBox="0 0 850.394 850.394" width="850.394" xmlns="http://www.w3.org/2000/svg"><path d="m403.176 748.652v37.184h-253.211v-37.184h235.972zm-17.239-.436v.436h-218.612v-.027l23.376-488.645h172.028l.129-.009z" fill="#a3d9ff"/><path d="m362.729 257.191.129 2.78-.129.009h-172.028l.13-2.789 44.492-34.05h81.834z" fill="#c8c8c8"/><path d="m315.54 123.63 9.27 99.511-96.711-.177 9.93-99.334h50.043z" fill="#fff"/><g fill="none" stroke="#000"><path d="m385.937 748.652h17.239v37.184h-253.211v-37.184h17.36zm0-.436-23.079-488.245-.129-2.78-45.572-34.05h-81.834l-44.492 34.05-.13 2.789-23.376 488.645m60.774-525.661-.084.874m.084-.874 96.711.177-9.27-99.511h-77.511z" stroke-width="18.378"/><path d="m228.07 222.964h.029" stroke-linecap="round" stroke-linejoin="round" stroke-width=".465"/><path d="m190.701 259.98h172.028" stroke-width="18.378"/></g><path d="m713.204 117.394h-17.668v-36.707h17.668v.287zm36.369 0h-19.371v-.083l.246-36.227v-.397h19.125v36.513zm17.313 0h-17.313v-36.707h17.313v36.273zm16.428 0h-16.428v-36.707h16.428z" fill="#fff"/><path d="m713.204 117.394v-36.707h17.244v.397l-.246 36.227v.083z" fill="#fff"/><path d="m606.563 93.086h-202.823s-12.917-.845-12.917-8.875c0-8.455 14.192-9.162 14.192-9.162l199.634.563c14.03 0 21.049 0 46.554-7.887 25.517-7.892 53.259-3.385 53.259-3.385h72.712c5.111 0 9.25 3.662 9.25 8.173 0 2.253-1.035 4.299-2.707 5.777-1.672 1.482-3.987 2.396-6.543 2.396h-72.712s-32.843-4.507-51.341 3.944c-18.498 8.456-28.06 8.456-46.558 8.456z" fill="#00e800"/><g fill="none"><g stroke="#000" stroke-width="9.358"><path d="m704.462 80.687s-32.843-4.507-51.341 3.944c-18.498 8.455-28.061 8.455-46.559 8.455h-202.822s-12.917-.845-12.917-8.875c0-8.455 14.192-9.162 14.192-9.162l199.634.563c14.03 0 21.049 0 46.554-7.887 25.517-7.892 53.259-3.385 53.259-3.385h72.712c5.111 0 9.25 3.662 9.25 8.173 0 2.253-1.035 4.299-2.707 5.777-1.672 1.482-3.987 2.396-6.543 2.396"/><path d="m713.204 117.394h-17.668v-36.707h87.778v36.707h-53.112zm36.369-.194v-36.333m-19.371 36.444.246-36.227m-17.244 36.337v-36.447m53.682 35.986v-35.742"/></g><path d="m0 0h850.394v850.394h-850.394z"/></g></svg>

<svg xmlns="http://www.w3.org/2000/svg" width="850.394" height="850.394" viewBox="0 0 850.394 850.394" overflow="visible"><path fill="#a3d9ff" d="M403.176 748.652v37.184H149.965v-37.184H385.937zM385.937 748.216v.436H167.325v-.027l23.376-488.645h172.028l.129-.009z"/><path fill="#c8c8c8" d="M362.729 257.191l.129 2.78-.129.009H190.701l.13-2.789 44.492-34.05h81.834z"/><path fill="#fff" d="M315.54 123.63l9.27 99.511-96.711-.177 9.93-99.334h50.043z"/><g fill="none" stroke="#000"><path stroke-width="18.378" d="M385.937 748.652h17.239v37.184H149.965v-37.184h17.36zM385.937 748.216l-23.079-488.245-.129-2.78-45.572-34.05h-81.834l-44.492 34.05-.13 2.789-23.376 488.645M228.099 222.964l-.084.874M228.099 222.964l96.711.177-9.27-99.511h-77.511z"/><path stroke-width=".465" stroke-linecap="round" stroke-linejoin="round" d="M228.07 222.964h.029"/><path stroke-width="18.378" d="M190.701 259.98h172.028"/></g><g><path fill="#fff" d="M713.204 117.394h-17.668V80.687h17.668v.287zM749.573 117.394h-19.371v-.083l.246-36.227v-.397h19.125V117.2zM766.886 117.394h-17.313V80.687h17.313V116.96zM783.314 117.394h-16.428V80.687h16.428z"/><path fill="#fff" d="M713.204 117.394V80.687h17.244v.397l-.246 36.227v.083z"/><path d="M606.563 93.086H403.74s-12.917-.845-12.917-8.875c0-8.455 14.192-9.162 14.192-9.162l199.634.563c14.03 0 21.049 0 46.554-7.887 25.517-7.892 53.259-3.385 53.259-3.385h72.712c5.111 0 9.25 3.662 9.25 8.173 0 2.253-1.035 4.299-2.707 5.777-1.672 1.482-3.987 2.396-6.543 2.396h-72.712s-32.843-4.507-51.341 3.944c-18.498 8.456-28.06 8.456-46.558 8.456z" fill="#00e800"/><g fill="none" stroke="#000" stroke-width="9.358"><path d="M704.462 80.687s-32.843-4.507-51.341 3.944c-18.498 8.455-28.061 8.455-46.559 8.455H403.74s-12.917-.845-12.917-8.875c0-8.455 14.192-9.162 14.192-9.162l199.634.563c14.03 0 21.049 0 46.554-7.887 25.517-7.892 53.259-3.385 53.259-3.385h72.712c5.111 0 9.25 3.662 9.25 8.173 0 2.253-1.035 4.299-2.707 5.777-1.672 1.482-3.987 2.396-6.543 2.396"/><path d="M713.204 117.394h-17.668V80.687H783.314v36.707H730.202zM749.573 117.2V80.867M730.202 117.311l.246-36.227M713.204 117.421V80.974M766.886 116.96V81.218"/></g></g><path fill="none" d="M0 0h850.394v850.394H0z"/></svg>
